X:11251
T:Mountain Park Breakdown
C:Ward Allen
R:Breakdown
M:2/4
L:1/16
K:D
ag|f2df g2fg|afde f2ef|ge=c2 a3f|ge=c2 a3g|
f2df g2fg|afde f2ef|gec2 (3afe ce|d2[df][df] d2:|
|:cB|A2FA B2BB|A2FA fAAA|eAfA gAaA|gAaf (3gfe cB|
A2FA B2BB|A2FA fAAA|eAfA (3gfe ce|d2[df][df] [d2f2]:|
